X: 2124
Q: "Strathspey."
M: C
L: 1/8
K: G
uF !segno!|\
vG>uD C/B,/A,/G,/ B,<DD>uG | vE>vA,uF>uA, vG>vA,uF>uA, |\
vG>uD C/B,/A,/G,/ B,<DD>uG | (3EFG (3ABc (3BAG (3FED |\
vG>uD C/B,/A,/G,/ B,<DD>uG |
vE>vA,uF>uA, vG>vA,uF>uA, |\
vG>uD C/B,/A,/G,/ B,<DD>uG | E>A G/F/E/D/ G3 |]|\
vd>vBuA>uG g>dB>G | (3cec (3BdB A>Bc>e |
d>BA>G g>dB>G | (3ced (3cBA (3GDC (3B,A,G, |\
vd>vBuA>uG g>dB>G | (3cec (3BdB A>Bc>e |\
(3dcB (3AGF (3GFE (3DCB, | (3CDE (3DEF (3GDC "^D.C."(3B,A,!segno!G, |]


